images/services/reposts-icon.svg

<svg width="43" height="49" viewBox="0 0 43 49" fill="none" xmlns="http://www.w3.org/2000/svg">
<path d="M41.478 20.1798L22.5217 1.22082C21.4038 0.105588 19.5953 0.118784 18.4919 1.21939C17.3823 2.33187 17.3823 4.13819 18.4919 5.24924L37.4509 24.2069C38.5616 25.3176 40.3672 25.3176 41.478 24.2069C42.5917 23.0932 42.5917 21.2933 41.478 20.1798Z" fill="#407BFF"/>
<path d="M17.0867 7.86981L16.9441 8.58501C15.939 13.6123 13.4965 18.3883 10.1929 22.2592L20.5067 32.573C24.3771 29.27 29.0873 26.7619 34.1148 25.7556L34.8313 25.613L17.0867 7.86981Z" fill="#407BFF"/>
<path d="M8.30054 24.3959L1.25175 31.4432C-0.413784 33.1088 -0.420714 35.8127 1.25175 37.4852L5.27884 41.5123C6.94438 43.1778 9.64835 43.1847 11.3208 41.5123L18.3689 34.4642L8.30054 24.3959ZM9.30736 35.4718C8.75117 36.0279 7.85 36.0279 7.29381 35.4718C6.73762 34.9156 6.73762 34.0144 7.29381 33.4582L9.30736 31.4447C9.86355 30.8885 10.7647 30.8885 11.3209 31.4447C11.8771 32.0009 11.8771 32.902 11.3209 33.4582L9.30736 35.4718Z" fill="#407BFF"/>
<path d="M24.3144 42.2699L26.2514 40.3329C27.924 38.6606 27.9185 35.9567 26.2515 34.2925L24.8128 32.8527C24.0175 33.3868 23.2581 33.9672 22.5197 34.5865L24.238 36.3073C24.7928 36.8593 24.7967 37.7578 24.238 38.3194L22.2689 40.2885L19.3753 37.4849L15.348 41.5122L21.8086 47.7725C22.9111 48.8779 24.7213 48.8841 25.8343 47.7711C26.9453 46.66 26.9453 44.8537 25.8343 43.7426L24.3144 42.2699Z" fill="#407BFF"/>
<path d="M30.0685 0C29.2814 0 28.6445 0.636881 28.6445 1.42394V4.27182C28.6445 5.05888 29.2814 5.69576 30.0685 5.69576C30.8555 5.69576 31.4924 5.05888 31.4924 4.27182V1.42394C31.4924 0.636881 30.8555 0 30.0685 0Z" fill="#407BFF"/>
<path d="M41.4583 11.3915H38.6105C37.8234 11.3915 37.1865 12.0284 37.1865 12.8155C37.1865 13.6025 37.8234 14.2394 38.6105 14.2394H41.4583C42.2454 14.2394 42.8823 13.6025 42.8823 12.8155C42.8823 12.0284 42.2454 11.3915 41.4583 11.3915Z" fill="#407BFF"/>
<path d="M39.6158 3.26547C39.0597 2.70928 38.1585 2.70928 37.6023 3.26547L34.7544 6.11335C34.1982 6.66954 34.1982 7.57071 34.7544 8.1269C35.3106 8.68309 36.2118 8.68318 36.768 8.1269L39.6158 5.27902C40.172 4.72283 40.172 3.82166 39.6158 3.26547Z" fill="#407BFF"/>
</svg>

<?xml version="1.0" encoding="UTF-8"?>
<svg width="43" height="49" fill="none" version="1.1" viewBox="0 0 43 49" xmlns="http://www.w3.org/2000/svg">
 <g fill="#FF725E">
  <path d="m41.478 20.18-18.956-18.959c-1.1179-1.1152-2.9264-1.102-4.0298-0.00143-1.1096 1.1125-1.1096 2.9188 0 4.0298l18.959 18.958c1.1107 1.1107 2.9163 1.1107 4.0271 0 1.1137-1.1137 1.1137-2.9136 0-4.0271z"/>
  <path d="m17.087 7.8698-0.1426 0.7152c-1.0051 5.0273-3.4476 9.8033-6.7512 13.674l10.314 10.314c3.8704-3.303 8.5806-5.8111 13.608-6.8174l0.7165-0.1426-17.745-17.743z"/>
  <path d="m8.3005 24.396-7.0488 7.0473c-1.6655 1.6656-1.6725 4.3695 0 6.042l4.0271 4.0271c1.6655 1.6655 4.3695 1.6724 6.042 0l7.0481-7.0481-10.068-10.068zm1.0068 11.076c-0.55619 0.5561-1.4574 0.5561-2.0136 0-0.55619-0.5562-0.55619-1.4574 0-2.0136l2.0136-2.0135c0.55619-0.5562 1.4573-0.5562 2.0135 0s0.5562 1.4573 0 2.0135l-2.0135 2.0136z"/>
  <path d="m24.314 42.27 1.937-1.937c1.6726-1.6723 1.6671-4.3762 1e-4 -6.0404l-1.4387-1.4398c-0.7953 0.5341-1.5547 1.1145-2.2931 1.7338l1.7183 1.7208c0.5548 0.552 0.5587 1.4505 0 2.0121l-1.9691 1.9691-2.8936-2.8036-4.0273 4.0273 6.4606 6.2603c1.1025 1.1054 2.9127 1.1116 4.0257-0.0014 1.111-1.1111 1.111-2.9174 0-4.0285l-1.5199-1.4727z"/>
  <path d="m30.068 0c-0.7871 0-1.424 0.63688-1.424 1.4239v2.8479c0 0.78706 0.6369 1.4239 1.424 1.4239 0.787 0 1.4239-0.63688 1.4239-1.4239v-2.8479c0-0.78706-0.6369-1.4239-1.4239-1.4239z"/>
  <path d="m41.458 11.392h-2.8478c-0.7871 0-1.424 0.6369-1.424 1.424 0 0.787 0.6369 1.4239 1.424 1.4239h2.8478c0.7871 0 1.424-0.6369 1.424-1.4239 0-0.7871-0.6369-1.424-1.424-1.424z"/>
  <path d="m39.616 3.2655c-0.5561-0.55619-1.4573-0.55619-2.0135 0l-2.8479 2.8479c-0.5562 0.55619-0.5562 1.4574 0 2.0136s1.4574 0.55628 2.0136 0l2.8478-2.8479c0.5562-0.55619 0.5562-1.4574 0-2.0136z"/>
 </g>
</svg>
